icon-themes/breeze_svg/cmd/lc_diagramwall.svg

<svg viewBox="0 0 24 24" xmlns="http://www.w3.org/2000/svg"><path d="m4 4v14h1v-14zm2 0v14h2 4 8v-14zm10.599609 5c.48645 1.7025 1.678215 3.166091 2.203125 4.337891.18371.3484.296875.739409.296875 1.162109 0 1.385-1.115 2.5-2.5 2.5s-2.5-1.115-2.5-2.5c0-.4227.113175-.813709.296875-1.162109.52493-1.1718 1.716665-2.635391 2.203125-4.337891zm-12.599609 10v1h1v-1zm2 0v1h14v-1z" fill="#4d4d4d"/></svg>

<svg xmlns="http://www.w3.org/2000/svg" viewBox="0 0 24 24">
 <path 
     style="fill:#4d4d4d" 
     d="M 4 4 L 4 18 L 5 18 L 5 4 L 4 4 z M 6 4 L 6 18 L 8 18 L 12 18 L 20 18 L 20 4 L 6 4 z M 16.599609 9 C 17.086059 10.7025 18.277824 12.166091 18.802734 13.337891 C 18.986444 13.686291 19.099609 14.0773 19.099609 14.5 C 19.099609 15.885 17.984609 17 16.599609 17 C 15.214609 17 14.099609 15.885 14.099609 14.5 C 14.099609 14.0773 14.212784 13.686291 14.396484 13.337891 C 14.921414 12.166091 16.113149 10.7025 16.599609 9 z M 4 19 L 4 20 L 5 20 L 5 19 L 4 19 z M 6 19 L 6 20 L 20 20 L 20 19 L 6 19 z "
     />
 </svg>
